!!!OTL: 115c. Schlemmerei.
!!!ARE: Europa, Mitteleuropa, Deutschland, Bergisches Land, Langenberg
!!!SCT: E0115A
!!!TXL: @@DE
!!!YEM: Copyright 1995, estate of Helmut Schaffrath.
**kern	**text
*ICvox	*
*M3/4	*
*k[f#]	*
*G:	*
!LO:TX:a:t=Sehr Mäßig.	!
!LO:TX:a:t=Aus Langenberg (Bergiſch).	!
{4d	Jch
=1	=1
4.g	ſtand
8a	auf
8b/	ho-
8b/	-hem
=2	=2
8bL	Ber-
8aJ	.
4a}	-ge,
{(8b/	ſchaut
8a)	hin-
=3	=3
4.g	-ab
8g	ins
8b	tie-
8b	-ſe
=4	=4
2a}	Thal,
{8bL	da
8ddJ	.
=5	=5
4dd	ſah
4b	ich
8bL	drei
8ddJ	.
=6	=6
4dd	Bur-
4b}	-ſchen
{(8bL	bei
8ddJ)	.
=7	=7
4.cc	ei-
8a	-nem
8dd	Mäd-
8dd	-chen
=8	=8
2b}	ſtehn.
{8bL	da
8ddJ	.
=9	=9
4dd	ſah
4b	ich
8bL	drei
8ddJ	.
=10	=10
4dd	Bur-
4b}	-ſchen
{(8bL	bei
8ddJ)	.
=11	=11
4.cc	ei-
8a	-nem
8dd	Mäd-
8dd	-chen
=12	=12
2b}	ſtehn.
==	==
!!!AGN: erzaehlendes Volks - Lied, Schalk -, Schelmen - Lied, betrogene Liebe, Ballade ?
!!!ONB: ESAC (Essen Associative Code) Database: ERK1
!!!AMT: simple triple
!!!AIN: vox
!!!EED: Helmut Schaffrath
!!!EEV: 1.0
!!!GTL: Schalks- und Schlemenlieder (Liebesabenteuer und betrogene Liebe)
!!!URL-scan: https://rosdok.uni-rostock.de/mcrviewer/recordIdentifier/rosdok_ppn745146120/iview2/phys_0480.iview2?x=-422.27491384562836&y=135.90730075514875&scale=0.554360769283424&rotation=0&layout=singlePageLayout
!!!ENC: Anna Maria Matuszewska
!!!EEV: 2024/02/12
*-	*-
